flaticon/medical/earbuds.svg

<svg xmlns="http://www.w3.org/2000/svg" width="32" height="32" viewBox="0 0 24 24">
    <path d="M 13.839844 15.875 L 21.628906 23.664062 L 23.445312 21.84375 L 15.566406 13.964844 L 13.839844 15.691406 L 13.839844 10.285156 L 14.269531 10.285156 L 14.269531 9.429688 L 12.984375 9.429688 L 12.984375 4.648438 C 13.71875 4.449219 14.269531 3.746094 14.269531 2.90625 C 14.269531 2.0625 13.667969 0 12.554688 0 C 11.566406 0 10.984375 1.621094 10.863281 2.574219 C 10.855469 2.574219 10.847656 2.570312 10.839844 2.570312 C 10.832031 2.570312 10.824219 2.574219 10.816406 2.574219 C 10.695312 1.621094 10.113281 0 9.125 0 C 8.136719 0 7.554688 1.621094 7.433594 2.574219 C 7.425781 2.574219 7.417969 2.570312 7.410156 2.570312 C 7.402344 2.570312 7.394531 2.574219 7.386719 2.574219 C 7.265625 1.621094 6.683594 0 5.695312 0 C 4.710938 0 4.125 1.621094 4.007812 2.574219 C 4 2.574219 3.992188 2.570312 3.984375 2.570312 C 3.972656 2.570312 3.96875 2.574219 3.957031 2.574219 C 3.839844 1.621094 3.253906 0 2.269531 0 C 1.15625 0 0.554688 2.0625 0.554688 2.910156 C 0.554688 3.746094 1.101562 4.449219 1.839844 4.652344 L 1.839844 9.429688 L 0.554688 9.429688 L 0.554688 10.285156 L 0.984375 10.285156 L 0.984375 23.144531 L 0.554688 23.144531 L 0.554688 24 L 14.269531 24 L 14.269531 23.144531 L 13.839844 23.144531 Z M 15.566406 15.175781 L 22.234375 21.84375 L 21.628906 22.449219 L 14.960938 15.785156 Z M 12.984375 15.464844 L 9.554688 15.464844 L 9.554688 16.320312 L 12.984375 16.320312 L 12.984375 17.179688 L 9.554688 17.179688 L 9.554688 18.035156 L 12.984375 18.035156 L 12.984375 18.894531 L 9.554688 18.894531 L 9.554688 19.75 L 12.984375 19.75 L 12.984375 21 L 6.984375 21 L 6.984375 12.429688 L 12.984375 12.429688 L 12.984375 13.75 L 9.554688 13.75 L 9.554688 14.605469 L 12.984375 14.605469 Z M 12.554688 0.855469 C 12.757812 0.855469 13.410156 1.972656 13.410156 2.910156 C 13.410156 3.429688 13.027344 3.855469 12.554688 3.855469 C 12.082031 3.855469 11.695312 3.429688 11.695312 2.910156 C 11.695312 1.972656 12.351562 0.855469 12.554688 0.855469 Z M 12.125 4.648438 L 12.125 9.429688 L 11.269531 9.429688 L 11.269531 4.089844 C 11.492188 4.359375 11.785156 4.558594 12.125 4.648438 Z M 10.410156 4.089844 L 10.410156 9.429688 L 9.554688 9.429688 L 9.554688 4.648438 C 9.894531 4.558594 10.1875 4.359375 10.410156 4.089844 Z M 9.125 0.855469 C 9.328125 0.855469 9.984375 1.972656 9.984375 2.910156 C 9.984375 3.429688 9.597656 3.855469 9.125 3.855469 C 8.652344 3.855469 8.269531 3.429688 8.269531 2.910156 C 8.269531 1.972656 8.921875 0.855469 9.125 0.855469 Z M 8.695312 4.648438 L 8.695312 9.429688 L 7.839844 9.429688 L 7.839844 4.089844 C 8.0625 4.359375 8.359375 4.558594 8.695312 4.648438 Z M 6.984375 4.089844 L 6.984375 9.429688 L 6.125 9.429688 L 6.125 4.648438 C 6.464844 4.558594 6.757812 4.359375 6.984375 4.089844 Z M 5.695312 0.855469 C 5.898438 0.855469 6.554688 1.972656 6.554688 2.910156 C 6.554688 3.429688 6.167969 3.855469 5.695312 3.855469 C 5.222656 3.855469 4.839844 3.429688 4.839844 2.910156 C 4.839844 1.972656 5.492188 0.855469 5.695312 0.855469 Z M 5.269531 4.648438 L 5.269531 9.429688 L 4.410156 9.429688 L 4.410156 4.089844 C 4.632812 4.359375 4.929688 4.558594 5.269531 4.648438 Z M 1.410156 2.910156 C 1.410156 1.972656 2.066406 0.855469 2.269531 0.855469 C 2.472656 0.855469 3.125 1.972656 3.125 2.910156 C 3.125 3.429688 2.742188 3.855469 2.269531 3.855469 C 1.796875 3.855469 1.410156 3.429688 1.410156 2.910156 Z M 2.695312 4.648438 C 3.035156 4.558594 3.332031 4.359375 3.554688 4.089844 L 3.554688 9.429688 L 2.695312 9.429688 Z M 1.839844 12.429688 L 2.695312 12.429688 L 2.695312 21 L 1.839844 21 Z M 12.984375 23.144531 L 1.839844 23.144531 L 1.839844 21.855469 L 3.554688 21.855469 L 3.554688 11.570312 L 1.839844 11.570312 L 1.839844 10.285156 L 12.984375 10.285156 L 12.984375 11.570312 L 6.125 11.570312 L 6.125 21.855469 L 12.984375 21.855469 Z M 12.984375 23.144531"/>
</svg>

<svg xmlns="http://www.w3.org/2000/svg" width="32" height="32" viewBox="0 0 24 24">
    <path d="M13.84 15.875l7.789 7.79 1.816-1.821-7.879-7.88-1.726 1.727v-5.406h.43V9.43h-1.286V4.648c.735-.199 1.286-.902 1.286-1.742 0-.844-.602-2.906-1.715-2.906-.989 0-1.57 1.621-1.692 2.574-.008 0-.015-.004-.023-.004s-.016.004-.024.004C10.696 1.621 10.113 0 9.125 0c-.988 0-1.57 1.621-1.691 2.574-.008 0-.016-.004-.024-.004s-.015.004-.023.004C7.266 1.621 6.684 0 5.695 0c-.984 0-1.57 1.621-1.687 2.574-.008 0-.016-.004-.024-.004-.011 0-.015.004-.027.004C3.84 1.621 3.254 0 2.27 0 1.156 0 .555 2.063.555 2.91c0 .836.547 1.54 1.285 1.742V9.43H.555v.855h.43v12.86h-.43V24H14.27v-.855h-.43zm1.726-.7l6.668 6.669-.605.605-6.668-6.664zm-2.582.29h-3.43v.855h3.43v.86h-3.43v.855h3.43v.86h-3.43v.855h3.43V21h-6v-8.57h6v1.32h-3.43v.855h3.43zm-.43-14.61c.204 0 .856 1.118.856 2.055 0 .52-.383.945-.855.945-.473 0-.86-.425-.86-.945 0-.937.657-2.055.86-2.055zm-.429 3.793V9.43h-.855V4.09c.222.27.515.469.855.558zM10.41 4.09v5.34h-.855V4.648c.34-.09.633-.289.855-.558zM9.125.855c.203 0 .86 1.118.86 2.055 0 .52-.387.945-.86.945S8.27 3.43 8.27 2.91c0-.937.652-2.055.855-2.055zm-.43 3.793V9.43H7.84V4.09c.223.27.52.469.855.558zm-1.71-.558v5.34h-.86V4.648c.34-.09.633-.289.86-.558zM5.694.855c.203 0 .86 1.118.86 2.055 0 .52-.387.945-.86.945-.472 0-.855-.425-.855-.945 0-.937.652-2.055.855-2.055zM5.27 4.648V9.43h-.86V4.09c.223.27.52.469.86.558zM1.41 2.91c0-.937.656-2.055.86-2.055.203 0 .855 1.118.855 2.055 0 .52-.383.945-.855.945-.473 0-.86-.425-.86-.945zm1.285 1.738c.34-.09.637-.289.86-.558v5.34h-.86zM1.84 12.43h.855V21H1.84zm11.144 10.715H1.84v-1.29h1.715V11.57H1.84v-1.285h11.144v1.285H6.125v10.285h6.86zm0 0"/>
</svg>
